client/public/assets/icons/action/map.svg

<?xml version="1.0"?><svg xmlns="http://www.w3.org/2000/svg" width="52" height="52" viewBox="0 0 52 52"><path fill="#fff" d="m48.8 9.5l-14.4-7.2c-0.7-0.3-1.5-0.3-2.1 0l-13.3 6.7-13.4-6.7c-0.8-0.4-1.8-0.4-2.5 0.1-0.7 0.4-1.1 1.2-1.1 2v36c0 0.9 0.5 1.7 1.3 2.1l14.4 7.2c0.7 0.3 1.5 0.3 2.1 0l13.4-6.7 13.3 6.7c0.3 0.2 0.7 0.3 1.1 0.3 0.4 0 0.9-0.1 1.3-0.4 0.7-0.4 1.1-1.2 1.1-2v-36c0-0.9-0.4-1.7-1.2-2.1z m-3.8 4.6v19c0 1.1-1 1.9-2 1.5-3.7-1.4-0.7-7.6-3.4-11-2.5-3.1-5.7 0.1-8.8-4.8-2.9-4.7 1-8.1 4.6-9.9 0.5-0.2 1-0.2 1.4 0l7.4 3.7c0.6 0.3 0.8 0.9 0.8 1.5z m-20.1 27.8c-0.6 0.3-1.3 0.2-1.8-0.2-1-0.9-1.8-2.3-1.8-3.7 0-2.4-4-1.6-4-6.4 0-3.9-4.6-4.9-8.5-4.5-1 0.1-1.7-0.6-1.7-1.6v-14.6c0-1.2 1.2-2 2.2-1.4l8.6 4.3c0.1 0 0.2 0.1 0.2 0.1l0.3 0.2c3.6 2.1 2.9 3.8 1.4 6.4-1.7 2.9-2.4 0-4.8-0.8s-4.8 0.8-4 2.4 3.2 0 4.8 1.6 1.6 4 6.4 2.4 5.6-0.8 7.2 0.8c1.6 1.6 2.4 4.8 0 7.2-1.4 1.4-2 4.4-2.6 6.4-0.1 0.4-0.4 0.8-0.8 1l-1.1 0.4z"></path></svg>

<?xml version="1.0" encoding="utf-8"?>
<!-- Generator: Adobe Illustrator 18.1.1, SVG Export Plug-In . SVG Version: 6.00 Build 0)  -->
<svg version="1.1" id="Layer_1" xmlns="http://www.w3.org/2000/svg" xmlns:xlink="http://www.w3.org/1999/xlink" x="0px" y="0px"
	 width="52px" height="52px" viewBox="0 0 52 52" enable-background="new 0 0 52 52" xml:space="preserve">
<path fill="#FFFFFF" d="M48.8,9.5L34.4,2.3c-0.7-0.3-1.5-0.3-2.1,0L19,9L5.6,2.3C4.8,1.9,3.8,1.9,3.1,2.4C2.4,2.8,2,3.6,2,4.4v36
	c0,0.9,0.5,1.7,1.3,2.1l14.4,7.2c0.7,0.3,1.5,0.3,2.1,0L33.2,43l13.3,6.7c0.3,0.2,0.7,0.3,1.1,0.3c0.4,0,0.9-0.1,1.3-0.4
	c0.7-0.4,1.1-1.2,1.1-2v-36C50,10.7,49.6,9.9,48.8,9.5z M45,14.1v19c0,1.1-1,1.9-2,1.5c-3.7-1.4-0.7-7.6-3.4-11
	c-2.5-3.1-5.7,0.1-8.8-4.8c-2.9-4.7,1-8.1,4.6-9.9c0.5-0.2,1-0.2,1.4,0l7.4,3.7C44.8,12.9,45,13.5,45,14.1z M24.9,41.9
	c-0.6,0.3-1.3,0.2-1.8-0.2c-1-0.9-1.8-2.3-1.8-3.7c0-2.4-4-1.6-4-6.4c0-3.9-4.6-4.9-8.5-4.5c-1,0.1-1.7-0.6-1.7-1.6V10.9
	c0-1.2,1.2-2,2.2-1.4l8.6,4.3c0.1,0,0.2,0.1,0.2,0.1l0.3,0.2c3.6,2.1,2.9,3.8,1.4,6.4c-1.7,2.9-2.4,0-4.8-0.8s-4.8,0.8-4,2.4
	s3.2,0,4.8,1.6s1.6,4,6.4,2.4s5.6-0.8,7.2,0.8c1.6,1.6,2.4,4.8,0,7.2c-1.4,1.4-2,4.4-2.6,6.4c-0.1,0.4-0.4,0.8-0.8,1L24.9,41.9z"/>
</svg>
